app/images/linkedin.svg

<?xml version="1.0" encoding="UTF-8"?>
<svg xmlns="http://www.w3.org/2000/svg" xmlns:xlink="http://www.w3.org/1999/xlink" width="px" height="20px" viewBox="0 0 18 20" version="1.1">
<g id="surface1">
<path style=" stroke:none;fill-rule:nonzero;fill:rgb(0%,0%,0%);fill-opacity:1;" d="M 4.027344 17.5 L 0.296875 17.5 L 0.296875 5.816406 L 4.027344 5.816406 Z M 2.160156 4.222656 C 0.96875 4.222656 0 3.261719 0 2.101562 C 0 0.941406 0.96875 0 2.160156 0 C 3.355469 0 4.324219 0.941406 4.324219 2.101562 C 4.324219 3.261719 3.355469 4.222656 2.160156 4.222656 Z M 17.996094 17.5 L 14.273438 17.5 L 14.273438 11.8125 C 14.273438 10.457031 14.242188 8.71875 12.332031 8.71875 C 10.390625 8.71875 10.09375 10.191406 10.09375 11.714844 L 10.09375 17.5 L 6.367188 17.5 L 6.367188 5.816406 L 9.945312 5.816406 L 9.945312 7.410156 L 9.996094 7.410156 C 10.496094 6.492188 11.714844 5.523438 13.527344 5.523438 C 17.304688 5.523438 18 7.941406 18 11.082031 L 18 17.5 Z M 17.996094 17.5 "/>
</g>
</svg>

<svg xmlns="http://www.w3.org/2000/svg" width="px" height="20" viewBox="0 0 18 20"><path d="M4.027 17.5H.297V5.816h3.73zM2.16 4.223C.97 4.223 0 3.262 0 2.102 0 .942.969 0 2.16 0c1.195 0 2.164.941 2.164 2.102 0 1.16-.969 2.12-2.164 2.12zM17.996 17.5h-3.723v-5.688c0-1.355-.03-3.093-1.941-3.093-1.941 0-2.238 1.472-2.238 2.996V17.5H6.367V5.816h3.578V7.41h.051c.5-.918 1.719-1.887 3.531-1.887 3.778 0 4.473 2.418 4.473 5.559V17.5zm0 0" id="surface1"/></svg>
